X:699
T:Reel 699
M:4/4
K:Dmaj
L:1/8
AG|FABA d3e|dBAF A2FG|FABc dedB|ABde fee2|faaf dcdc|BABc d3e|FAAc defg|afef d2|de|fAAd faga|fdad Bdde|faaa bgag|fdBd d2de|faaf bdag|fdad BddA|ABAF ABde|fgec d2|
